X: 1
T: As I Went Out Upon The Ice
M: 2/4
L: 1/8
R: polka
K: Ador
|: B/d/ | 
eA BA | eA AB/d/ | eA BA | G>A Bd |
eA BA | eA B>A | G>A B/c/d | BA A :|
|: B/d/ | 
ea a>b | ag ed | B/c/d ef | ga/g/ f/e/d |
ea- ab | a>g ed | Bd gB | A2 A :|
N: version 2, a different B-part
|: g/f/ | 
eA BA | eA Ag/f/ | eA c/B/A | GG/A/ Bd |
e>A BA | eA c/B/A | GG/A/ Bd | BA A :|
|: d | 
e>^d ef/g/ | ae fe | d>B de/f/ | gd eg |
e>^d ef | a/b/a/e/ fe | de/f/ gB | BA A :|
